X: 27287
T: Miss Walsh
R: jig
M: 6/8
K: Gmajor
E|DGG BGG|dGG BAG|DGG BAG|ABG AGE|
DGG BGG|dGG BAG|gfg dBG|AGF G2:|
d|gfg ded|BAB def|g2e dBG|AGE GED|
gfg ded|BAB def|g2e dBG|AGF G2:|
E|DEG Bdd|cee Bdd|DEG BdB|AGE GED|
DEG Bdd|cee Bdd|gfg dBG|AGF G2:|

